docs/img/logo/logo-main.svg

<svg width="177" height="56" viewBox="0 0 177 56" fill="none" xmlns="http://www.w3.org/2000/svg">
<path d="M175.255 37.4874H167.306V44.0366H165.562V30.4522H167.306V35.8506H175.255V30.4522H177V44.0366H175.255V37.4874ZM155.22 31.8328C153.763 31.8328 152.515 32.3655 151.468 33.4353C150.42 34.506 149.9 35.8021 149.9 37.3201C149.9 38.2966 150.139 39.2088 150.614 40.0576C151.092 40.902 151.737 41.5536 152.549 42.015C153.357 42.4746 154.25 42.7053 155.22 42.7053C156.19 42.7053 157.084 42.4746 157.89 42.015C158.702 41.5545 159.348 40.902 159.827 40.0576C160.302 39.2079 160.541 38.2966 160.541 37.3201C160.541 35.8021 160.016 34.506 158.964 33.4353C157.917 32.3664 156.669 31.8328 155.22 31.8328ZM155.229 30.1185C157.327 30.1185 159.071 30.8731 160.451 32.3867C161.707 33.7638 162.337 35.398 162.337 37.2831C162.337 39.1762 161.674 40.8307 160.345 42.2465C159.02 43.6615 157.311 44.3694 155.229 44.3694C153.135 44.3694 151.422 43.6615 150.097 42.2465C148.768 40.8316 148.105 39.1771 148.105 37.2831C148.105 35.4068 148.733 33.7779 149.99 32.4008C151.37 30.8784 153.118 30.1185 155.229 30.1185ZM131.577 42.3231H142.809L137.053 29.5048L131.577 42.3231ZM129.872 46.7741H128.026V42.3223H129.499L136.722 25.6667H137.36L144.989 42.3223H146.412V46.7741H144.565V44.0366H129.873V46.7741H129.872ZM119.247 31.8328C117.79 31.8328 116.542 32.3655 115.494 33.4353C114.447 34.506 113.926 35.8021 113.926 37.3201C113.926 38.2966 114.165 39.2088 114.64 40.0576C115.119 40.902 115.764 41.5536 116.576 42.015C117.384 42.4746 118.277 42.7053 119.247 42.7053C120.217 42.7053 121.11 42.4746 121.918 42.015C122.73 41.5545 123.375 40.902 123.854 40.0576C124.328 39.2079 124.568 38.2966 124.568 37.3201C124.568 35.8021 124.042 34.506 122.991 33.4353C121.944 32.3664 120.696 31.8328 119.247 31.8328ZM119.256 30.1185C121.354 30.1185 123.098 30.8731 124.479 32.3867C125.735 33.7638 126.363 35.398 126.363 37.2831C126.363 39.1762 125.701 40.8307 124.372 42.2465C123.046 43.6615 121.338 44.3694 119.256 44.3694C117.162 44.3694 115.449 43.6615 114.123 42.2465C112.794 40.8316 112.132 39.1771 112.132 37.2831C112.132 35.4068 112.76 33.7779 114.016 32.4008C115.397 30.8784 117.144 30.1185 119.256 30.1185ZM102.354 31.8073C100.836 31.8073 99.563 32.3321 98.5287 33.3852C97.4891 34.4382 96.9719 35.7475 96.9719 37.3122C96.9719 38.3397 97.2031 39.266 97.6647 40.084C98.1262 40.9064 98.7881 41.5545 99.6468 42.037C100.511 42.5186 101.421 42.7563 102.374 42.7563C103.314 42.7563 104.199 42.5142 105.029 42.0282C105.857 41.5457 106.516 40.8686 107.007 39.9977C107.498 39.1269 107.741 38.2156 107.741 37.2647C107.741 36.2996 107.499 35.3883 107.011 34.5272C106.524 33.6651 105.87 32.9969 105.045 32.5231C104.225 32.0468 103.323 31.8073 102.354 31.8073ZM95.3313 30.4522H97.076V32.9502C97.7679 32.0001 98.5631 31.2913 99.465 30.822C100.366 30.3536 101.37 30.1185 102.482 30.1185C104.417 30.1185 106.072 30.8141 107.448 32.1991C108.825 33.585 109.513 35.2571 109.513 37.2057C109.513 39.2026 108.829 40.8897 107.465 42.2844C106.103 43.6738 104.457 44.3694 102.529 44.3694C101.447 44.3694 100.452 44.1431 99.5418 43.6958C98.631 43.2433 97.8103 42.575 97.076 41.6839V49H95.3313V30.4522V30.4522ZM85.0524 37.7938V42.5521H86.9375C87.8262 42.5521 88.4634 42.4966 88.8429 42.3821C89.2241 42.2721 89.5533 42.029 89.8216 41.6531C90.0961 41.278 90.232 40.8052 90.232 40.2293C90.232 39.4879 89.9972 38.8989 89.5268 38.4551C89.0573 38.0157 88.4378 37.7938 87.6682 37.7938H85.0524ZM85.0524 31.9614V36.1825H86.1988C87.2411 36.1825 87.925 36.1394 88.241 36.0584C88.5613 35.973 88.8596 35.7687 89.1421 35.4447C89.4236 35.1162 89.5648 34.6865 89.5648 34.1441C89.5648 33.5815 89.42 33.1122 89.1253 32.7318C88.8305 32.3479 88.5216 32.126 88.1977 32.0582C87.873 31.994 87.2067 31.9605 86.1979 31.9605H85.0524V31.9614ZM87.2711 44.0366H83.3094V30.4522H87.2111C88.699 30.4522 89.7713 30.7929 90.4288 31.4701C91.0827 32.1524 91.4119 32.9502 91.4119 33.8624C91.4119 35.2395 90.8012 36.1702 89.5789 36.6606C91.3475 37.2867 92.2327 38.4938 92.2327 40.2804C92.2327 42.7828 90.5788 44.0366 87.2711 44.0366ZM69.8684 25.6675H80.4076V27.4585H71.7147V33.2143H80.3308V35.0053H71.7147V42.2465H80.3308V44.0366H69.8684V25.6675V25.6675Z" fill="#039AD4"/>
<path d="M116.511 12.3982C116.035 12.3982 115.595 12.5168 115.194 12.7559C114.79 12.9923 114.47 13.3263 114.232 13.7561C113.995 14.1859 113.875 14.6421 113.875 15.122C113.875 15.5975 113.995 16.0519 114.235 16.4861C114.476 16.9211 114.796 17.2586 115.202 17.4995C115.608 17.742 116.042 17.8633 116.505 17.8633C116.972 17.8633 117.416 17.7438 117.834 17.5038C118.254 17.2639 118.576 16.9396 118.801 16.5291C119.027 16.1204 119.14 15.659 119.14 15.1457C119.14 14.3643 118.887 13.7113 118.379 13.1857C117.873 12.6592 117.25 12.3982 116.511 12.3982ZM119.941 11.7214V18.5014H119.089V17.3351C118.729 17.7798 118.328 18.1138 117.882 18.3353C117.436 18.5568 116.947 18.6667 116.42 18.6667C115.479 18.6667 114.676 18.3195 114.009 17.626C113.344 16.9299 113.011 16.087 113.011 15.0912C113.011 14.1182 113.348 13.2841 114.019 12.5924C114.689 11.9007 115.499 11.5535 116.445 11.5535C116.99 11.5535 117.484 11.6704 117.927 11.9042C118.367 12.1389 118.755 12.4922 119.091 12.9659V11.7187H119.941V11.7214ZM107.02 11.7214H107.872V14.5779L110.973 11.7214H112.145L108.78 14.8152L112.415 18.5014H111.204L108.142 15.3672L107.872 15.6089V18.5014H107.02V11.7214V11.7214ZM100.15 11.7214V16.7436L105.046 11.7214H105.113V18.5014H104.261V13.5179L99.4025 18.5014H99.2981V11.7214H100.15ZM96.5384 15.2327H92.6535V18.5014H91.8017V11.7214H92.6535V14.4153H96.5384V11.7214H97.3902V18.5014H96.5384V15.2327ZM84.932 11.7214V16.7436L89.8273 11.7214H89.8937V18.5014H89.0419V13.5179L84.1837 18.5014H84.0793V11.7214H84.932ZM82.7783 18.5014H81.8826L79.6349 13.5575L77.4235 18.5014H76.5062L79.5453 11.7214H79.697L82.7783 18.5014ZM69.8684 9.33333H70.7832V12.7726L74.3913 9.33333H75.6017L71.266 13.445L75.9406 18.5014H74.7387L70.7832 14.2193V18.5014H69.8684V9.33333Z" fill="#039AD4"/>
<path fill-rule="evenodd" clip-rule="evenodd" d="M27.948 5.80309C40.1831 5.80309 50.1026 15.7408 50.1026 27.9997C50.1026 40.2586 40.1831 50.1962 27.948 50.1962C15.7117 50.1962 5.79347 40.2586 5.79347 27.9997C5.79347 15.7408 15.7117 5.80309 27.948 5.80309ZM27.948 0C43.3821 0 55.8947 12.5363 55.8947 27.9997C55.8947 43.4644 43.3821 56 27.948 56C12.5126 56 0 43.4644 0 27.9997C0 12.537 12.5126 0 27.948 0Z" fill="#039AD4"/>
<path fill-rule="evenodd" clip-rule="evenodd" d="M27.3658 17.5C30.692 17.5 33.6348 19.1429 35.4293 21.6651L33.8689 23.1056C32.4725 20.9956 30.0812 19.6046 27.3658 19.6046C23.06 19.6046 19.5683 23.1016 19.5683 27.417C19.5683 31.7304 23.06 35.2274 27.3658 35.2274C31.0175 35.2274 34.083 32.7112 34.9299 29.3145H28.3447V27.3395H35.1612V27.3368L37.2625 27.3322L37.2632 27.4163C37.2632 32.8923 32.8313 37.3333 27.3658 37.3333C21.899 37.3333 17.4671 32.893 17.4671 27.4163C17.4671 21.939 21.8983 17.5 27.3658 17.5Z" fill="#039AD4"/>
<path fill-rule="evenodd" clip-rule="evenodd" d="M42.503 18.6893C43.5149 18.6893 44.3347 19.5928 44.3347 20.7067C44.3347 21.822 43.5149 22.7255 42.503 22.7255C41.4923 22.7255 40.6718 21.822 40.6718 20.7067C40.6718 19.5928 41.4923 18.6893 42.503 18.6893ZM42.503 23.9397C43.5149 23.9397 44.3347 24.844 44.3347 25.9586C44.3347 27.0738 43.5149 27.9767 42.503 27.9767C41.4923 27.9767 40.6718 27.0738 40.6718 25.9586C40.6718 24.844 41.4923 23.9397 42.503 23.9397ZM44.1759 23.333C44.9248 23.9134 45.4145 24.873 45.4145 25.9586C45.4145 27.7304 44.1113 29.1667 42.503 29.1667C40.8953 29.1667 39.5921 27.7304 39.5921 25.9586C39.5921 24.8723 40.0817 23.9128 40.83 23.333C40.0817 22.7539 39.5921 21.7929 39.5921 20.7074C39.5921 18.9356 40.8953 17.5 42.503 17.5C44.1113 17.5 45.4145 18.9363 45.4145 20.7074C45.4145 21.7929 44.9248 22.7532 44.1759 23.333Z" fill="#039AD4"/>
</svg>

<svg width="177" height="56" fill="none" xmlns="http://www.w3.org/2000/svg"><path d="M175.255 37.487h-7.949v6.55h-1.744V30.452h1.744v5.399h7.949v-5.399H177v13.585h-1.745v-6.55zm-20.035-5.654c-1.457 0-2.705.532-3.752 1.602-1.048 1.071-1.568 2.367-1.568 3.885 0 .977.239 1.889.714 2.738a5.077 5.077 0 001.935 1.957c.808.46 1.701.69 2.671.69.97 0 1.864-.23 2.67-.69a5.083 5.083 0 001.937-1.957 5.52 5.52 0 00.714-2.738c0-1.518-.525-2.814-1.577-3.885-1.047-1.069-2.295-1.602-3.744-1.602zm.009-1.714c2.098 0 3.842.754 5.222 2.268 1.256 1.377 1.886 3.011 1.886 4.896 0 1.893-.663 3.548-1.992 4.963-1.325 1.415-3.034 2.123-5.116 2.123-2.094 0-3.807-.708-5.132-2.123-1.329-1.414-1.992-3.069-1.992-4.963 0-1.876.628-3.505 1.885-4.882 1.38-1.523 3.128-2.283 5.239-2.283zm-23.652 12.204h11.232l-5.756-12.818-5.476 12.818zm-1.705 4.451h-1.846v-4.452h1.473l7.223-16.655h.638l7.629 16.655h1.423v4.452h-1.847v-2.737h-14.692v2.737h-.001zm-10.625-14.941c-1.457 0-2.705.532-3.753 1.602-1.047 1.071-1.568 2.367-1.568 3.885 0 .977.239 1.889.714 2.738a5.087 5.087 0 001.936 1.957c.808.46 1.701.69 2.671.69.97 0 1.863-.23 2.671-.69a5.08 5.08 0 001.936-1.957 5.53 5.53 0 00.714-2.738c0-1.518-.526-2.814-1.577-3.885-1.047-1.069-2.295-1.602-3.744-1.602zm.009-1.714c2.098 0 3.842.754 5.223 2.268 1.256 1.377 1.884 3.011 1.884 4.896 0 1.893-.662 3.548-1.991 4.963-1.326 1.415-3.034 2.123-5.116 2.123-2.094 0-3.807-.708-5.133-2.123-1.329-1.414-1.991-3.069-1.991-4.963 0-1.876.628-3.505 1.884-4.882 1.381-1.523 3.128-2.283 5.24-2.283zm-16.902 1.688c-1.518 0-2.791.525-3.825 1.578-1.04 1.053-1.557 2.363-1.557 3.927 0 1.028.231 1.954.693 2.772.461.822 1.123 1.47 1.982 1.953.864.482 1.774.72 2.727.72a5.17 5.17 0 002.655-.729 5.323 5.323 0 001.978-2.03 5.485 5.485 0 00.004-5.471 5.215 5.215 0 00-1.966-2.004 5.277 5.277 0 00-2.691-.716zm-7.023-1.355h1.745v2.498c.692-.95 1.487-1.659 2.389-2.128.901-.468 1.905-.703 3.017-.703 1.935 0 3.59.695 4.966 2.08 1.377 1.386 2.065 3.058 2.065 5.007 0 1.997-.684 3.684-2.048 5.078-1.362 1.39-3.008 2.085-4.936 2.085a6.68 6.68 0 01-2.987-.673c-.911-.453-1.732-1.121-2.466-2.012V49h-1.745V30.452zm-10.279 7.342v4.758h1.885c.89 0 1.526-.055 1.906-.17.381-.11.71-.353.979-.729.274-.375.41-.848.41-1.424 0-.741-.235-1.33-.705-1.774-.47-.44-1.09-.661-1.859-.661h-2.616zm0-5.833v4.221H86.2c1.042 0 1.726-.043 2.042-.124.32-.085.619-.29.901-.613.282-.329.423-.758.423-1.3 0-.564-.145-1.033-.44-1.413-.294-.384-.603-.606-.927-.674-.325-.064-.991-.098-2-.098h-1.146v.001zm2.22 12.076h-3.963V30.452h3.902c1.488 0 2.56.34 3.218 1.018.654.682.983 1.48.983 2.392 0 1.377-.61 2.308-1.833 2.799 1.769.626 2.654 1.833 2.654 3.62 0 2.502-1.654 3.756-4.962 3.756zm-17.404-18.37h10.54v1.791h-8.693v5.756h8.616v1.791h-8.616v7.241h8.616v1.79H69.868V25.668zm46.643-13.269c-.476 0-.916.119-1.317.358-.404.236-.724.57-.962 1a2.78 2.78 0 00.003 2.73c.241.435.561.773.967 1.014.406.242.84.363 1.303.363.467 0 .911-.12 1.329-.36.42-.24.742-.563.967-.974.226-.409.339-.87.339-1.383 0-.782-.253-1.435-.761-1.96-.506-.527-1.129-.788-1.868-.788zm3.43-.677v6.78h-.852v-1.166c-.36.445-.761.779-1.207 1a3.245 3.245 0 01-1.462.332c-.941 0-1.744-.348-2.411-1.041-.665-.696-.998-1.539-.998-2.535 0-.973.337-1.807 1.008-2.499.67-.691 1.48-1.039 2.426-1.039.545 0 1.039.117 1.482.351.44.235.828.588 1.164 1.062v-1.247h.85v.002zm-12.921 0h.852v2.857l3.101-2.857h1.172l-3.365 3.094 3.635 3.686h-1.211l-3.062-3.134-.27.242V18.5h-.852v-6.78zm-6.87 0v5.023l4.896-5.023h.067v6.78h-.852v-4.983L99.403 18.5h-.105v-6.78h.852zm-3.612 3.512h-3.885V18.5h-.851v-6.78h.851v2.694h3.885V11.72h.852v6.78h-.852v-3.268zM84.932 11.72v5.023l4.895-5.023h.067v6.78h-.852v-4.983L84.184 18.5h-.105v-6.78h.853zm-2.154 6.78h-.895l-2.248-4.944-2.212 4.944h-.917l3.04-6.78h.151l3.081 6.78zm-12.91-9.168h.915v3.44l3.608-3.44h1.21l-4.335 4.112 4.675 5.056h-1.202l-3.956-4.282V18.5h-.915V9.333z" fill="#039AD4"/><path fill-rule="evenodd" clip-rule="evenodd" d="M27.948 5.803c12.235 0 22.155 9.938 22.155 22.197 0 12.259-9.92 22.196-22.155 22.196C15.712 50.196 5.793 40.26 5.793 28c0-12.26 9.919-22.197 22.155-22.197zm0-5.803c15.434 0 27.947 12.536 27.947 28S43.382 56 27.948 56C12.513 56 0 43.464 0 28 0 12.537 12.513 0 27.948 0z" fill="#039AD4"/><path fill-rule="evenodd" clip-rule="evenodd" d="M27.366 17.5a9.876 9.876 0 018.063 4.165l-1.56 1.44a7.786 7.786 0 00-6.503-3.5c-4.306 0-7.798 3.497-7.798 7.812 0 4.313 3.492 7.81 7.798 7.81 3.651 0 6.717-2.516 7.564-5.912h-6.585v-1.976h6.816v-.002l2.102-.005v.084c0 5.476-4.432 9.917-9.897 9.917-5.467 0-9.899-4.44-9.899-9.917 0-5.477 4.431-9.916 9.899-9.916zm15.137 1.19c1.012 0 1.832.903 1.832 2.017 0 1.115-.82 2.018-1.832 2.018-1.01 0-1.831-.903-1.831-2.018 0-1.114.82-2.018 1.831-2.018zm0 5.25c1.012 0 1.832.904 1.832 2.019 0 1.115-.82 2.018-1.832 2.018-1.01 0-1.831-.903-1.831-2.018 0-1.115.82-2.02 1.831-2.02zm1.673-.607c.749.58 1.238 1.54 1.238 2.626 0 1.771-1.303 3.208-2.911 3.208s-2.91-1.437-2.91-3.208c0-1.087.489-2.046 1.237-2.626-.748-.58-1.238-1.54-1.238-2.626 0-1.771 1.303-3.207 2.911-3.207s2.911 1.436 2.911 3.207c0 1.086-.49 2.046-1.238 2.626z" fill="#039AD4"/></svg>
